actions/16/help-contents.svg

<?xml version="1.0" encoding="UTF-8" standalone="no"?>
<svg
   xmlns:dc="http://purl.org/dc/elements/1.1/"
   xmlns:cc="http://creativecommons.org/ns#"
   xmlns:rdf="http://www.w3.org/1999/02/22-rdf-syntax-ns#"
   xmlns:svg="http://www.w3.org/2000/svg"
   xmlns="http://www.w3.org/2000/svg"
   xmlns:xlink="http://www.w3.org/1999/xlink"
   version="1.1"
   width="16"
   height="16"
   id="svg3935">
  <defs
     id="defs3937">
    <linearGradient
       x1="7.4296298"
       y1="13.162963"
       x2="7.4296298"
       y2="0.12066602"
       id="linearGradient3892"
       xlink:href="#linearGradient3707-319-631-407-324-3-8"
       gradientUnits="userSpaceOnUse" />
    <linearGradient
       id="linearGradient3707-319-631-407-324-3-8">
      <stop
         id="stop3760-7-3"
         style="stop-color:#185f9a;stop-opacity:1"
         offset="0" />
      <stop
         id="stop3762-8-4"
         style="stop-color:#599ec9;stop-opacity:1"
         offset="1" />
    </linearGradient>
    <linearGradient
       x1="71.204407"
       y1="6.2375584"
       x2="71.204407"
       y2="44.340794"
       id="linearGradient3071"
       xlink:href="#linearGradient4011"
       gradientUnits="userSpaceOnUse"
       gradientTransform="matrix(0.35135136,0,0,0.35135136,-17.203671,-0.90930013)" />
    <linearGradient
       id="linearGradient4011">
      <stop
         id="stop4013"
         style="stop-color:#ffffff;stop-opacity:1"
         offset="0" />
      <stop
         id="stop4015"
         style="stop-color:#ffffff;stop-opacity:0.23529412"
         offset="0.507761" />
      <stop
         id="stop4017"
         style="stop-color:#ffffff;stop-opacity:0.15686275"
         offset="0.83456558" />
      <stop
         id="stop4019"
         style="stop-color:#ffffff;stop-opacity:0.39215687"
         offset="1" />
    </linearGradient>
    <linearGradient
       id="linearGradient2867-449-88-871-390-598-476-591-434-148-57-177-3-8">
      <stop
         id="stop3750-8-9"
         style="stop-color:#90dbec;stop-opacity:1"
         offset="0" />
      <stop
         id="stop3752-3-2"
         style="stop-color:#55c1ec;stop-opacity:1"
         offset="0.26238" />
      <stop
         id="stop3754-7-2"
         style="stop-color:#3689e6;stop-opacity:1"
         offset="0.704952" />
      <stop
         id="stop3756-9-3"
         style="stop-color:#2b63a0;stop-opacity:1"
         offset="1" />
    </linearGradient>
    <radialGradient
       cx="5.7800279"
       cy="8.4497671"
       r="19.99999"
       fx="5.7800279"
       fy="8.4497671"
       id="radialGradient3931"
       xlink:href="#linearGradient2867-449-88-871-390-598-476-591-434-148-57-177-3-8"
       gradientUnits="userSpaceOnUse"
       gradientTransform="matrix(0,0.89892574,-0.95095622,-1.6561642e-8,16.035401,-6.0146846)" />
    <linearGradient
       x1="24"
       y1="44"
       x2="24"
       y2="3.8990016"
       id="linearGradient3933"
       xlink:href="#linearGradient3707-319-631-407-324-3-8"
       gradientUnits="userSpaceOnUse"
       gradientTransform="matrix(0.38465107,0,0,0.38465106,-1.231625,-1.2316257)" />
  </defs>
  <metadata
     id="metadata3940">
    <rdf:RDF>
      <cc:Work
         rdf:about="">
        <dc:format>image/svg+xml</dc:format>
        <dc:type
           rdf:resource="http://purl.org/dc/dcmitype/StillImage" />
        <dc:title />
      </cc:Work>
    </rdf:RDF>
  </metadata>
  <g
     id="layer1">
    <path
       d="m 8.000001,0.49999997 c -4.138241,0 -7.50000103,3.36175853 -7.50000103,7.49999993 C 0.49999997,12.138242 3.86176,15.500001 8.000001,15.5 12.13824,15.5 15.500004,12.138242 15.5,7.9999999 15.5,3.8617585 12.13824,0.49999997 8.000001,0.49999997 z"
       id="path2555-7"
       style="color:#000000;fill:url(#radialGradient3931);fill-opacity:1;fill-rule:nonzero;stroke:url(#linearGradient3933);stroke-width:0.99999994;stroke-linecap:round;stroke-linejoin:round;stroke-miterlimit:4;stroke-opacity:1;stroke-dasharray:none;stroke-dashoffset:0;marker:none;visibility:visible;display:inline;overflow:visible;enable-background:accumulate" />
    <path
       d="M 14.5,7.999769 C 14.5,11.589737 11.589636,14.5 8.0000824,14.5 4.4101993,14.5 1.5,11.589703 1.5,7.999769 1.5,4.4099697 4.4101993,1.5000003 8.0000824,1.5000003 11.589636,1.5000003 14.5,4.4099697 14.5,7.999769 l 0,0 z"
       id="path8655-6"
       style="opacity:0.5;color:#000000;fill:none;stroke:url(#linearGradient3071);stroke-width:0.99999994;stroke-linecap:round;stroke-linejoin:round;stroke-miterlimit:4;stroke-opacity:1;stroke-dasharray:none;stroke-dashoffset:0;marker:none;visibility:visible;display:inline;overflow:visible;enable-background:accumulate" />
    <path
       d="M 8.3414142,8.9859802 C 8.3166346,8.0787645 8.5148047,7.1980506 9.3504899,6.5742083 10.233188,5.8686816 11.083296,4.9859726 10.993458,3.9454576 10.973841,2.9419755 9.8338672,2.1556379 8.605627,2.0425763 7.2240574,1.8462734 5.5523673,2.3317052 5.0894119,3.4383231 4.8546122,3.976544 5.0723491,4.9421753 5.8603356,4.9421753 c 0.4608941,0 0.6725855,-0.3053592 0.7073635,-0.5846914 0.026312,-0.211351 -0.058288,-0.4000864 -0.1082498,-0.5746636 -0.056929,-0.19892 0.1860948,-0.5844493 0.4507816,-0.7415272 0.221175,-0.13126 0.4525815,-0.1752734 0.4866925,-0.183681 0.794304,-0.1957868 1.5861109,0.236679 1.9164669,0.763044 0.330356,0.5263639 -0.033266,1.3247554 -0.556071,2.1011604 -0.5228054,0.776406 -1.0838678,1.6582439 -1.0816261,2.5949 0,0.356586 -0.030978,0.4777262 -0.00897,0.6219919 0.017586,0.1152639 0.3897098,0.1013339 0.6746888,0.047272 z M 7.9789187,10.207044 c -0.7594802,-0.04229 -1.2851464,0.840767 -0.8288879,1.403394 0.40746,0.621196 1.5498839,0.467848 1.7456953,-0.235593 0.2035731,-0.547016 -0.2863285,-1.176932 -0.9168074,-1.167802 l 0,10e-7 z"
       id="path3298-7"
       style="font-size:72px;font-style:normal;font-weight:bold;fill:url(#linearGradient3892);fill-opacity:1;stroke:none;font-family:Standard Symbols L" />
    <path
       d="M 8.3414142,9.9859797 C 8.3166346,9.078764 8.5148047,8.1980501 9.3504899,7.5742078 10.233188,6.8686811 11.083296,5.9859721 10.993458,4.9454571 10.973841,3.941975 9.8338672,3.1556374 8.605627,3.0425758 7.2240574,2.8462729 5.5523673,3.3317047 5.0894119,4.4383226 4.8546122,4.9765435 5.0723491,5.9421748 5.8603356,5.9421748 c 0.4608941,0 0.6725855,-0.3053592 0.7073635,-0.5846914 0.026312,-0.211351 -0.058288,-0.4000864 -0.1082498,-0.5746636 -0.056929,-0.19892 0.1860948,-0.5844493 0.4507816,-0.7415272 0.221175,-0.13126 0.4525815,-0.1752734 0.4866925,-0.183681 0.794304,-0.1957868 1.5861109,0.236679 1.9164669,0.763044 0.330356,0.5263639 -0.033266,1.3247554 -0.556071,2.1011604 -0.5228054,0.776406 -1.0838678,1.6582439 -1.0816261,2.5949 0,0.356586 -0.030978,0.4777262 -0.00897,0.6219919 0.017586,0.1152641 0.3897098,0.1013341 0.6746888,0.047272 z M 7.9789187,11.207044 c -0.7594802,-0.04229 -1.2851464,0.840767 -0.8288879,1.403394 0.40746,0.621196 1.5498839,0.467848 1.7456953,-0.235593 0.2035731,-0.547016 -0.2863285,-1.176932 -0.9168074,-1.167802 l 0,10e-7 z"
       id="path3298"
       style="font-size:72px;font-style:normal;font-weight:bold;fill:#ffffff;fill-opacity:1;stroke:none;font-family:Standard Symbols L" />
  </g>
</svg>

<svg xmlns="http://www.w3.org/2000/svg" xmlns:xlink="http://www.w3.org/1999/xlink" viewBox="0 0 16 16"><defs><linearGradient x1="7.43" y1="13.163" x2="7.43" y2=".121" id="g" xlink:href="#a" gradientUnits="userSpaceOnUse"/><linearGradient id="a"><stop offset="0" stop-color="#185f9a"/><stop offset="1" stop-color="#599ec9"/></linearGradient><linearGradient x1="71.204" y1="6.238" x2="71.204" y2="44.341" id="f" xlink:href="#b" gradientUnits="userSpaceOnUse" gradientTransform="translate(-17.204 -.91) scale(.35135)"/><linearGradient id="b"><stop offset="0" stop-color="#fff"/><stop offset=".508" stop-color="#fff" stop-opacity=".235"/><stop offset=".835" stop-color="#fff" stop-opacity=".157"/><stop offset="1" stop-color="#fff" stop-opacity=".392"/></linearGradient><linearGradient id="c"><stop offset="0" stop-color="#90dbec"/><stop offset=".262" stop-color="#55c1ec"/><stop offset=".705" stop-color="#3689e6"/><stop offset="1" stop-color="#2b63a0"/></linearGradient><radialGradient cx="5.78" cy="8.45" r="20" fx="5.78" fy="8.45" id="d" xlink:href="#c" gradientUnits="userSpaceOnUse" gradientTransform="matrix(0 .89893 -.95096 0 16.035 -6.015)"/><linearGradient x1="24" y1="44" x2="24" y2="3.899" id="e" xlink:href="#a" gradientUnits="userSpaceOnUse" gradientTransform="translate(-1.232 -1.232) scale(.38465)"/></defs><path d="M8 .5A7.505 7.505 0 0 0 .5 8c0 4.138 3.362 7.5 7.5 7.5s7.5-3.362 7.5-7.5S12.138.5 8 .5z" color="#000" fill="url(#d)" stroke="url(#e)" stroke-linecap="round" stroke-linejoin="round" overflow="visible"/><path d="M14.5 8a6.5 6.5 0 1 1-13 0 6.5 6.5 0 0 1 13 0z" opacity=".5" color="#000" fill="none" stroke="url(#f)" stroke-linecap="round" stroke-linejoin="round" overflow="visible"/><path d="M8.34 8.986c-.023-.907.175-1.788 1.01-2.412.883-.705 1.733-1.588 1.643-2.63-.02-1.002-1.16-1.788-2.387-1.9-1.382-.198-3.054.288-3.517 1.394-.24.54-.02 1.504.77 1.504.46 0 .67-.305.702-.585.026-.21-.06-.4-.11-.574-.055-.2.188-.585.452-.742.22-.13.452-.17.486-.18.795-.192 1.587.24 1.917.767.33.527-.034 1.325-.557 2.102-.52.775-1.083 1.657-1.08 2.594 0 .356-.03.477-.01.62.018.116.39.1.675.048zm-.36 1.22c-.76-.04-1.286.842-.83 1.404.407.622 1.55.468 1.746-.235.203-.547-.287-1.177-.917-1.168z" font-size="72" font-weight="700" fill="url(#g)" font-family="Standard Symbols L"/><path d="M8.34 9.986c-.023-.907.175-1.788 1.01-2.412.883-.705 1.733-1.588 1.643-2.63-.02-1.002-1.16-1.788-2.387-1.9-1.382-.198-3.054.288-3.517 1.394-.24.54-.02 1.504.77 1.504.46 0 .67-.305.702-.585.026-.21-.06-.4-.11-.574-.055-.2.188-.585.452-.742.22-.13.452-.17.486-.18.795-.192 1.587.24 1.917.767.33.527-.034 1.325-.557 2.102-.52.775-1.083 1.657-1.08 2.594 0 .356-.03.477-.01.62.018.116.39.1.675.048zm-.36 1.22c-.76-.04-1.286.842-.83 1.404.407.622 1.55.468 1.746-.235.203-.547-.287-1.177-.917-1.168z" font-size="72" font-weight="700" fill="#fff" font-family="Standard Symbols L"/></svg>
